assets/svg/smile.svg

<?xml version="1.0" encoding="iso-8859-1"?>
<!-- Generator: Adobe Illustrator 19.0.0, SVG Export Plug-In . SVG Version: 6.00 Build 0)  -->
<svg version="1.1" id="Capa_1" xmlns="http://www.w3.org/2000/svg" xmlns:xlink="http://www.w3.org/1999/xlink" x="0px" y="0px"
	 viewBox="0 0 368 368" style="enable-background:new 0 0 368 368;" xml:space="preserve">
<g>
	<g>
		<g>
			<path d="M261.336,226.04c-3.296-2.952-8.36-2.664-11.296,0.624C233.352,245.312,209.288,256,184,256
				c-25.28,0-49.352-10.688-66.04-29.336c-2.952-3.288-8-3.576-11.296-0.624c-3.296,2.944-3.568,8-0.624,11.296
				C125.76,259.368,154.176,272,184,272c29.832,0,58.248-12.64,77.96-34.664C264.904,234.04,264.624,228.984,261.336,226.04z"/>
			<path d="M184,0C82.544,0,0,82.544,0,184s82.544,184,184,184s184-82.544,184-184S285.456,0,184,0z M184,352
				c-92.64,0-168-75.36-168-168S91.36,16,184,16s168,75.36,168,168S276.64,352,184,352z"/>
			<path d="M248,128c-22.056,0-40,17.944-40,40c0,4.416,3.584,8,8,8c4.416,0,8-3.584,8-8c0-13.232,10.768-24,24-24s24,10.768,24,24
				c0,4.416,3.584,8,8,8c4.416,0,8-3.584,8-8C288,145.944,270.056,128,248,128z"/>
			<path d="M144,168c0,4.416,3.584,8,8,8s8-3.584,8-8c0-22.056-17.944-40-40-40c-22.056,0-40,17.944-40,40c0,4.416,3.584,8,8,8
				s8-3.584,8-8c0-13.232,10.768-24,24-24S144,154.768,144,168z"/>
		</g>
	</g>
</g>
<g>
</g>
<g>
</g>
<g>
</g>
<g>
</g>
<g>
</g>
<g>
</g>
<g>
</g>
<g>
</g>
<g>
</g>
<g>
</g>
<g>
</g>
<g>
</g>
<g>
</g>
<g>
</g>
<g>
</g>
</svg>

<?xml version="1.0" encoding="UTF-8"?>
<svg width="368px" height="368px" viewBox="0 0 368 368" version="1.1" xmlns="http://www.w3.org/2000/svg" xmlns:xlink="http://www.w3.org/1999/xlink">
    <title>smile</title>
    <g id="Page-1" stroke="none" stroke-width="1" fill="none" fill-rule="evenodd">
        <g id="smile" fill="#000000" fill-rule="nonzero">
            <path d="M261.336,226.04 C258.04,223.088 252.976,223.376 250.04,226.664 C233.352,245.312 209.288,256 184,256 C158.72,256 134.648,245.312 117.96,226.664 C115.008,223.376 109.96,223.088 106.664,226.04 C103.368,228.984 103.096,234.04 106.04,237.336 C125.76,259.368 154.176,272 184,272 C213.832,272 242.248,259.36 261.96,237.336 C264.904,234.04 264.624,228.984 261.336,226.04 Z" id="Path"></path>
            <path d="M184,0 C82.544,0 0,82.544 0,184 C0,285.456 82.544,368 184,368 C285.456,368 368,285.456 368,184 C368,82.544 285.456,0 184,0 Z M184,352 C91.36,352 16,276.64 16,184 C16,91.36 91.36,16 184,16 C276.64,16 352,91.36 352,184 C352,276.64 276.64,352 184,352 Z" id="Shape"></path>
            <path d="M248,128 C225.944,128 208,145.944 208,168 C208,172.416 211.584,176 216,176 C220.416,176 224,172.416 224,168 C224,154.768 234.768,144 248,144 C261.232,144 272,154.768 272,168 C272,172.416 275.584,176 280,176 C284.416,176 288,172.416 288,168 C288,145.944 270.056,128 248,128 Z" id="Path"></path>
            <path d="M144,168 C144,172.416 147.584,176 152,176 C156.416,176 160,172.416 160,168 C160,145.944 142.056,128 120,128 C97.944,128 80,145.944 80,168 C80,172.416 83.584,176 88,176 C92.416,176 96,172.416 96,168 C96,154.768 106.768,144 120,144 C133.232,144 144,154.768 144,168 Z" id="Path"></path>
        </g>
    </g>
</svg>
